src/icons/resources/group-category-icons/apple.svg

<svg xmlns="http://www.w3.org/2000/svg" width="40" height="40" fill="none">
  <path stroke="#0D57AA" stroke-width="1.6" d="M29.1462 16.1824c-.1393.108-2.5971 1.493-2.5971 4.5725 0 3.5619 3.1275 4.8221 3.2211 4.8533-.0144.0768-.4968 1.7257-1.649 3.4059-1.0273 1.4785-2.1002 2.9547-3.7323 2.9547-1.6322 0-2.0522-.9481-3.9364-.9481-1.8362 0-2.4891.9793-3.982.9793-1.493 0-2.5347-1.3681-3.7324-3.0483-1.3873-1.973-2.5082-5.0381-2.5082-7.9472 0-4.6661 3.0339-7.1407 6.0198-7.1407 1.5865 0 2.9091 1.0417 3.9052 1.0417.948 0 2.4266-1.1041 4.2316-1.1041.684 0 3.1419.0624 4.7597 2.381Zm-5.6166-4.3564c.7465-.8857 1.2745-2.11463 1.2745-3.34355 0-.17042-.0144-.34324-.0456-.48245-1.2145.0456-2.6595.80888-3.5307 1.81938-.6841.77772-1.3226 2.00662-1.3226 3.25232 0 .1872.0312.3744.0456.4345.0768.0144.2017.0312.3265.0312 1.0897 0 2.4602-.7297 3.2523-1.7114Z"/>
</svg>

<svg width="40" height="40" viewBox="0 0 40 40" fill="none" xmlns="http://www.w3.org/2000/svg">
<path d="M29.1462 16.1824C29.0069 16.2904 26.5491 17.6754 26.5491 20.7549C26.5491 24.3168 29.6766 25.577 29.7702 25.6082C29.7558 25.685 29.2734 27.3339 28.1212 29.0141C27.0939 30.4926 26.021 31.9688 24.3889 31.9688C22.7567 31.9688 22.3367 31.0207 20.4525 31.0207C18.6163 31.0207 17.9634 32 16.4705 32C14.9775 32 13.9358 30.6319 12.7381 28.9517C11.3508 26.9787 10.2299 23.9136 10.2299 21.0045C10.2299 16.3384 13.2638 13.8638 16.2497 13.8638C17.8362 13.8638 19.1588 14.9055 20.1549 14.9055C21.1029 14.9055 22.5815 13.8014 24.3865 13.8014C25.0705 13.8014 27.5284 13.8638 29.1462 16.1824ZM23.5296 11.826C24.2761 10.9403 24.8041 9.71137 24.8041 8.48245C24.8041 8.31203 24.7897 8.13921 24.7585 8C23.544 8.0456 22.099 8.80888 21.2278 9.81938C20.5437 10.5971 19.9052 11.826 19.9052 13.0717C19.9052 13.2589 19.9364 13.4461 19.9508 13.5062C20.0276 13.5206 20.1525 13.5374 20.2773 13.5374C21.367 13.5374 22.7375 12.8077 23.5296 11.826Z" stroke="#0D57AA" stroke-width="1.6"/>
</svg>
